src/svg/receipt-sharp.svg

<svg xmlns="http://www.w3.org/2000/svg" class="ionicon" viewBox="0 0 512 512"><title>Receipt</title><path d="M448 48l-32-16-32 16-32-16-32 16-32-16-32 16-32-16-32 16-48-16v256.05h224V424c0 30.93 33.07 56 64 56h12c30.93 0 52-25.07 52-56V32zM272.5 240l-.5-32h159.5l.5 32zm-64-80l-.5-32h223.5l.5 32z" fill="currentColor"/><path d="M336 424V320H16v32c0 50.55 5.78 71.62 14.46 87.63C45.19 466.8 71.86 480 112 480h256s-32-20-32-56z" fill="currentColor"/></svg>

<svg xmlns="http://www.w3.org/2000/svg" width="512" height="512" viewBox="0 0 512 512"><title>ionicons-v5-l</title><path d="M448,48,416,32,384,48,352,32,320,48,288,32,256,48,224,32,192,48,144,32V288s0,.05,0,.05H368V424c0,30.93,33.07,56,64,56h12c30.93,0,52-25.07,52-56V32ZM272.5,240l-.5-32H431.5l.5,32Zm-64-80-.5-32H431.5l.5,32Z"/><path d="M336,424V320H16v32c0,50.55,5.78,71.62,14.46,87.63C45.19,466.8,71.86,480,112,480H368S336,460,336,424Z"/></svg>
